docs/images/shopping_cart.svg

<svg width="41" height="28" viewBox="0 0 41 28" fill="none" xmlns="http://www.w3.org/2000/svg">
<g clip-path="url(#clip0_664_1458)">
<path d="M39.8162 19.8503H19.902L20.9019 17.7365L37.5154 17.7052C38.0772 17.7052 38.5588 17.2887 38.6591 16.7125L40.9599 3.34598C41.0201 2.99541 40.9298 2.63444 40.7091 2.36023C40.6 2.22528 40.4639 2.11658 40.3103 2.04166C40.1567 1.96674 39.9892 1.9274 39.8195 1.92637L18.6848 1.85348L18.5042 0.971861C18.3905 0.40957 17.9022 0 17.3471 0H12.1805C11.8674 0 11.5671 0.129087 11.3458 0.358864C11.1244 0.588641 11 0.900285 11 1.22524C11 1.55019 11.1244 1.86184 11.3458 2.09161C11.5671 2.32139 11.8674 2.45048 12.1805 2.45048H16.3907L17.1799 6.34486L19.1228 16.1086L16.6214 20.3466C16.4915 20.5286 16.4133 20.7446 16.3956 20.9704C16.3778 21.1961 16.4213 21.4225 16.5211 21.6239C16.7218 22.0369 17.1264 22.2973 17.5745 22.2973H19.6746C19.2269 22.9145 18.9851 23.6662 18.9857 24.4388C18.9857 26.4034 20.524 28 22.4168 28C24.3096 28 25.8478 26.4034 25.8478 24.4388C25.8478 23.6648 25.6004 22.9116 25.159 22.2973H30.5463C30.0986 22.9145 29.8568 23.6662 29.8574 24.4388C29.8574 26.4034 31.3957 28 33.2885 28C35.1812 28 36.7195 26.4034 36.7195 24.4388C36.7195 23.6648 36.4721 22.9116 36.0307 22.2973H39.8195C40.4683 22.2973 41 21.7489 41 21.072C40.9981 20.7474 40.8725 20.4368 40.6507 20.2079C40.4289 19.979 40.1289 19.8504 39.8162 19.8503ZM19.1763 4.26925L38.4317 4.33519L36.5456 15.2964L21.4202 15.3242L19.1763 4.26925ZM22.4168 25.5356C21.8349 25.5356 21.36 25.0428 21.36 24.4388C21.36 23.8349 21.8349 23.342 22.4168 23.342C22.9987 23.342 23.4735 23.8349 23.4735 24.4388C23.4735 24.7297 23.3622 25.0087 23.164 25.2144C22.9658 25.4201 22.6971 25.5356 22.4168 25.5356ZM33.2885 25.5356C32.7066 25.5356 32.2317 25.0428 32.2317 24.4388C32.2317 23.8349 32.7066 23.342 33.2885 23.342C33.8704 23.342 34.3452 23.8349 34.3452 24.4388C34.3452 24.7297 34.2339 25.0087 34.0357 25.2144C33.8375 25.4201 33.5687 25.5356 33.2885 25.5356Z" fill="#A65CF0"/>
<ellipse cx="7" cy="12.5" rx="7" ry="7.5" fill="#FF862F"/>
<path d="M9.49512 12.4307C9.49512 13.6774 9.29004 14.6003 8.87988 15.1992C8.47298 15.7982 7.84473 16.0977 6.99512 16.0977C6.17155 16.0977 5.5498 15.7884 5.12988 15.1699C4.71322 14.5514 4.50488 13.6383 4.50488 12.4307C4.50488 11.1709 4.70833 10.2432 5.11523 9.64746C5.52214 9.0485 6.14876 8.74902 6.99512 8.74902C7.81868 8.74902 8.44043 9.06152 8.86035 9.68652C9.28353 10.3115 9.49512 11.2262 9.49512 12.4307ZM6.00391 12.4307C6.00391 13.3063 6.07878 13.9346 6.22852 14.3154C6.38151 14.693 6.63704 14.8818 6.99512 14.8818C7.34668 14.8818 7.60059 14.6898 7.75684 14.3057C7.91309 13.9215 7.99121 13.2965 7.99121 12.4307C7.99121 11.555 7.91146 10.9268 7.75195 10.5459C7.5957 10.1618 7.34342 9.96973 6.99512 9.96973C6.6403 9.96973 6.38639 10.1618 6.2334 10.5459C6.0804 10.9268 6.00391 11.555 6.00391 12.4307Z" fill="white"/>
</g>
<defs>
<clipPath id="clip0_664_1458">
<rect width="41" height="28" fill="white"/>
</clipPath>
</defs>
</svg>

<svg width="41" height="28" fill="none" xmlns="http://www.w3.org/2000/svg"><g clip-path="url(#clip0_664_1458)"><path d="M39.816 19.85H19.902l1-2.114 16.613-.03c.562 0 1.044-.417 1.144-.994l2.3-13.366a1.24 1.24 0 00-.25-.986 1.177 1.177 0 00-.399-.318 1.135 1.135 0 00-.49-.116l-21.135-.073-.18-.881C18.39.41 17.901 0 17.346 0H12.18c-.313 0-.613.13-.834.359a1.25 1.25 0 00-.346.866c0 .325.124.637.346.867.221.23.521.358.835.358h4.21l.789 3.895 1.943 9.764-2.502 4.238a1.252 1.252 0 00-.1 1.277c.2.413.605.673 1.053.673h2.1a3.645 3.645 0 00-.688 2.142c0 1.964 1.538 3.561 3.43 3.561 1.894 0 3.432-1.597 3.432-3.561 0-.774-.248-1.527-.689-2.142h5.387a3.645 3.645 0 00-.689 2.142c0 1.964 1.539 3.561 3.431 3.561 1.893 0 3.431-1.597 3.431-3.561 0-.774-.247-1.527-.688-2.142h3.788c.65 0 1.181-.548 1.181-1.225a1.253 1.253 0 00-.35-.864 1.163 1.163 0 00-.834-.358zM19.176 4.27l19.256.065-1.886 10.961-15.126.028L19.176 4.27zm3.24 21.266c-.581 0-1.056-.493-1.056-1.097s.475-1.097 1.057-1.097 1.056.493 1.056 1.097c0 .29-.11.57-.309.775a1.037 1.037 0 01-.747.322zm10.872 0c-.581 0-1.056-.493-1.056-1.097s.475-1.097 1.056-1.097c.582 0 1.057.493 1.057 1.097 0 .29-.111.57-.31.775a1.038 1.038 0 01-.746.322z" fill="#A65CF0"/><ellipse cx="7" cy="12.5" rx="7" ry="7.5" fill="#FF862F"/><path d="M9.495 12.43c0 1.247-.205 2.17-.615 2.77-.407.598-1.035.898-1.885.898-.823 0-1.445-.31-1.865-.928-.417-.619-.625-1.532-.625-2.74 0-1.26.203-2.187.61-2.783.407-.598 1.034-.898 1.88-.898.824 0 1.445.313 1.865.938.424.625.635 1.54.635 2.744zm-3.491 0c0 .876.075 1.505.225 1.885.153.378.408.567.766.567.352 0 .606-.192.762-.576.156-.384.234-1.01.234-1.875 0-.876-.08-1.504-.239-1.885-.156-.384-.409-.576-.757-.576-.355 0-.609.192-.762.576-.153.38-.23 1.009-.23 1.885z" fill="#fff"/></g><defs><clipPath id="clip0_664_1458"><path fill="#fff" d="M0 0h41v28H0z"/></clipPath></defs></svg>
